X:1007
T:Scale Navigation F
O:Kevin Fraser
Z:Kevin Fraser
Q:1/4=120
K:HP
M:4/4
L:1/4
R:March
V:gstem=up stem=down
%%MIDI gracedivider 4
%%MIDI gchord
%%MIDI beatstring
[| f  G  f  B  |  f  c  f  d  |  f  e  f  f  |  f  g   f  a  |  a  f  g   f  |  f   f  e  f |  d  f  c  f  |  B  f   G  f  |] 
w: A  G  A  B  |  A  c  A  d  |  A  e  A  f  |  A  g   A  a  |  a  A  g   A  |  f   A  e  A |  d  A  c  A  |  B  A   G  A  :|
w: en em en o  |  en o  en a  |  en e  en ve |  en di  en I  |  I  en di  en |  ve  en e  en|  a  en o  en |  o  en  em en :| 

